humanity-icon-theme/Humanity/categories/24/applications-utilities.svg

<?xml version="1.0" encoding="UTF-8" standalone="no"?>
<!-- Created with Inkscape (http://www.inkscape.org/) -->

<svg
   xmlns:svg="http://www.w3.org/2000/svg"
   xmlns="http://www.w3.org/2000/svg"
   xmlns:xlink="http://www.w3.org/1999/xlink"
   version="1.0"
   width="24"
   height="24"
   id="svg2">
  <defs
     id="defs4">
    <linearGradient
       id="linearGradient3890">
      <stop
         id="stop3892"
         style="stop-color:white;stop-opacity:1"
         offset="0" />
      <stop
         id="stop3894"
         style="stop-color:white;stop-opacity:0"
         offset="1" />
    </linearGradient>
    <linearGradient
       id="linearGradient6856">
      <stop
         id="stop6858"
         style="stop-color:black;stop-opacity:1"
         offset="0" />
      <stop
         id="stop6860"
         style="stop-color:black;stop-opacity:0"
         offset="1" />
    </linearGradient>
    <linearGradient
       id="linearGradient6393">
      <stop
         id="stop6395"
         style="stop-color:#d3d3d3;stop-opacity:1"
         offset="0" />
      <stop
         id="stop6401"
         style="stop-color:white;stop-opacity:1"
         offset="0.5" />
      <stop
         id="stop6397"
         style="stop-color:#ededed;stop-opacity:1"
         offset="1" />
    </linearGradient>
    <radialGradient
       cx="23.953241"
       cy="37.923729"
       r="24.306795"
       fx="23.953241"
       fy="37.923729"
       id="radialGradient3772"
       xlink:href="#linearGradient6856"
       gradientUnits="userSpaceOnUse"
       gradientTransform="matrix(0.13502913,0,0,0.04593435,9.9764869,20.355385)" />
    <linearGradient
       id="linearGradient2490">
      <stop
         id="stop2492"
         style="stop-color:#791235;stop-opacity:1"
         offset="0" />
      <stop
         id="stop2494"
         style="stop-color:#dd3b27;stop-opacity:1"
         offset="1" />
    </linearGradient>
    <linearGradient
       id="linearGradient4956">
      <stop
         id="stop4958"
         style="stop-color:#f8b17e;stop-opacity:1"
         offset="0" />
      <stop
         id="stop4960"
         style="stop-color:#e35d4f;stop-opacity:1"
         offset="0.26238" />
      <stop
         id="stop4962"
         style="stop-color:#c6262e;stop-opacity:1"
         offset="0.66347069" />
      <stop
         id="stop4964"
         style="stop-color:#690b54;stop-opacity:1"
         offset="1" />
    </linearGradient>
    <radialGradient
       cx="23.953241"
       cy="37.923729"
       r="24.306795"
       fx="23.953241"
       fy="37.923729"
       id="radialGradient2899"
       xlink:href="#linearGradient6856"
       gradientUnits="userSpaceOnUse"
       gradientTransform="matrix(0.41140759,0,0,0.08227201,3.1454547,18.879794)" />
    <linearGradient
       x1="-3.4789732"
       y1="39.660332"
       x2="-11.967676"
       y2="39.799488"
       id="linearGradient3745"
       xlink:href="#linearGradient4956"
       gradientUnits="userSpaceOnUse"
       gradientTransform="matrix(0.73748782,0,0,0.52330824,2.5340538,-0.67074861)" />
    <linearGradient
       x1="-13.289687"
       y1="34.163548"
       x2="-1.2524289"
       y2="33.259014"
       id="linearGradient3747"
       xlink:href="#linearGradient2490"
       gradientUnits="userSpaceOnUse"
       gradientTransform="matrix(0.73748782,0,0,0.52330824,2.5340538,-0.67074861)" />
    <linearGradient
       x1="40.570251"
       y1="37.349899"
       x2="40.570251"
       y2="27.537407"
       id="linearGradient3751"
       xlink:href="#linearGradient6393"
       gradientUnits="userSpaceOnUse"
       gradientTransform="matrix(0.59386192,0,0,0.60091646,-4.67597,-2.9501289)" />
    <linearGradient
       x1="31.165529"
       y1="34.234436"
       x2="33.806744"
       y2="24.377295"
       id="linearGradient3754"
       xlink:href="#linearGradient6393"
       gradientUnits="userSpaceOnUse"
       gradientTransform="matrix(0.67999986,0,0,0.4962825,-5.8099965,0.90613815)" />
    <linearGradient
       x1="8.5690336"
       y1="11.255746"
       x2="22.398188"
       y2="13"
       id="linearGradient3757"
       xlink:href="#linearGradient6393"
       gradientUnits="userSpaceOnUse"
       gradientTransform="matrix(0.47553151,0,0,0.47094722,-0.53601653,0.11121488)" />
    <linearGradient
       x1="14.273527"
       y1="15.035544"
       x2="33.601479"
       y2="20.214453"
       id="linearGradient3760"
       xlink:href="#linearGradient6393"
       gradientUnits="userSpaceOnUse"
       gradientTransform="matrix(0.4189189,0,0,0.58333278,0.36486496,-1.6249928)" />
    <linearGradient
       x1="0.70701385"
       y1="16.263453"
       x2="-3.5356269"
       y2="16.263475"
       id="linearGradient3908"
       xlink:href="#linearGradient3890"
       gradientUnits="userSpaceOnUse"
       gradientTransform="matrix(0.70711052,-0.70710304,0.70711082,0.70710274,0,0)" />
  </defs>
  <path
     d="m 23,21.999856 a 10,1.9997691 0 1 1 -19.9999999,0 10,1.9997691 0 1 1 19.9999999,0 z"
     id="path6854"
     style="opacity:0.14224135;fill:url(#radialGradient2899);fill-opacity:1;stroke:none" />
  <path
     d="m 16.492998,22.097386 a 3.2821255,1.1165169 0 0 1 -6.564251,0 3.2821255,1.1165169 0 1 1 6.564251,0 z"
     id="path6894"
     style="opacity:0.28017243;fill:url(#radialGradient3772);fill-opacity:1;stroke:none" />
  <g
     transform="matrix(0.7071068,0.7071068,-0.7071068,0.7071068,17.192388,-25.091884)"
     id="g6744" />
  <path
     d="m 3.693659,6.2499999 10.137838,0 c 3.430858,0 3.918503,1.1901026 3.918503,1.1901026 0,0 -0.558989,2.3098974 -7.218295,2.3098974 l -6.838046,0 C 2.893872,9.7499999 2.25,8.9694978 2.25,7.9999982 2.25,7.0304993 2.893872,6.2499999 3.693659,6.2499999 z"
     id="rect6318"
     style="fill:url(#linearGradient3760);fill-opacity:1;stroke:#878787;stroke-width:0.69999999;stroke-linecap:round;stroke-linejoin:miter;stroke-miterlimit:4;stroke-opacity:1;stroke-dasharray:none;stroke-dashoffset:0.7" />
  <path
     d="m 2.9404393,6.2190807 c -0.7942228,0.7865662 -0.783715,2.0544249 0.010508,2.8409937 0.7942228,0.7865675 2.0639152,0.7865675 2.8581381,0 l 1.96497,-1.9460295 C 8.7093641,6.1877528 9.3603441,5.3836996 9.8020728,4.6685031 L 10.390512,3.4613421 C 10.770567,2.3541927 10.727042,0.86939032 10.299986,0.44645011 9.8625243,0.01320652 8.0744088,1.1346047 7.2801859,1.9211709 L 2.9404393,6.2190807 z"
     id="rect5331"
     style="fill:url(#linearGradient3757);fill-opacity:1;stroke:#878787;stroke-width:0.69999999;stroke-linecap:round;stroke-linejoin:miter;stroke-miterlimit:4;stroke-opacity:1;stroke-dasharray:none;stroke-dashoffset:0.7" />
  <path
     d="m 17.649999,20.291244 0,-5.208046 c 0,-3.363578 -1.366465,-3.733198 -1.366465,-3.733198 0,0 -2.033534,1.039787 -2.033534,4.950997 l 0,3.990247 c 0,0.808152 0.758198,1.458756 1.699999,1.458756 0.9418,0 1.7,-0.650604 1.7,-1.458756 z"
     id="path6321"
     style="fill:url(#linearGradient3754);fill-opacity:1;stroke:#878787;stroke-width:0.69999993;stroke-linecap:round;stroke-linejoin:miter;stroke-miterlimit:4;stroke-opacity:1;stroke-dasharray:none;stroke-dashoffset:0.7" />
  <path
     d="m 12.840053,19.738885 2.80824,2.257347 6.322013,-6.397113 C 23.230076,14.324384 23.65,12.624735 23.65,12.624735 L 22.390229,11.35 c 0,0 -1.267026,0.31473 -2.388316,1.195063 l -3.080472,3.063949 -4.081388,4.129873 z"
     id="rect6323"
     style="fill:url(#linearGradient3751);fill-opacity:1;stroke:#878787;stroke-width:0.70000005;stroke-linecap:round;stroke-linejoin:miter;stroke-miterlimit:4;stroke-opacity:1;stroke-dasharray:none;stroke-dashoffset:0.7" />
  <rect
     width="6.222156"
     height="20.740667"
     rx="2.4984384"
     ry="2.4984379"
     x="-5.939343"
     y="6.6003118"
     transform="matrix(0.70711052,-0.70710304,0.70711082,0.70710274,0,0)"
     id="rect5329"
     style="fill:url(#linearGradient3745);fill-opacity:1;stroke:url(#linearGradient3747);stroke-width:0.99999994;stroke-linecap:round;stroke-linejoin:miter;stroke-miterlimit:4;stroke-opacity:1;stroke-dasharray:none;stroke-dashoffset:0.7" />
  <path
     d="m 6.25,9.5 -0.75,0.750002 0.75,0.75 L 5.5,11.75 6.25,12.5 7,11.75 7.75,12.5 8.5,11.75 7.75,11.000002 8.5,10.250002 7.75,9.5 7,10.250002 6.25,9.5 z"
     id="rect6749"
     style="opacity:0.8;fill:white;fill-opacity:1;stroke:none" />
  <path
     d="M 2.9610276,7.8223251 C 2.2981041,8.4252439 2.426927,9.5367668 3.1206255,10.059035 6.8194221,13.750888 10.504738,17.45688 14.211976,21.139879 14.854016,21.715981 15.8706,21.50004 16.366678,20.844793 16.865321,20.322948 17.5839,19.8171 17.471953,18.996628 17.373076,18.182694 16.60847,17.743367 16.111286,17.171756 12.667847,13.735255 9.2378839,10.28462 5.7860035,6.8569722 5.143963,6.2808705 4.1273788,6.4968113 3.6313017,7.1520581 3.407877,7.3754804 3.1844523,7.5989027 2.9610276,7.8223251 z"
     id="path3898"
     style="opacity:0.3;fill:none;stroke:url(#linearGradient3908);stroke-width:0.99999994;stroke-linecap:round;stroke-linejoin:miter;stroke-miterlimit:4;stroke-opacity:1;stroke-dasharray:none;stroke-dashoffset:0.7" />
</svg>

<?xml version="1.0" encoding="UTF-8" standalone="no"?>
<!-- Created with Inkscape (http://www.inkscape.org/) -->
<svg id="svg2" xmlns="http://www.w3.org/2000/svg" height="24" width="24" version="1.0" xmlns:xlink="http://www.w3.org/1999/xlink">
 <defs id="defs4">
  <linearGradient id="linearGradient6856">
   <stop id="stop6858" offset="0"/>
   <stop id="stop6860" style="stop-opacity:0" offset="1"/>
  </linearGradient>
  <linearGradient id="linearGradient6393">
   <stop id="stop6395" style="stop-color:#d3d3d3" offset="0"/>
   <stop id="stop6401" style="stop-color:#fff" offset=".5"/>
   <stop id="stop6397" style="stop-color:#ededed" offset="1"/>
  </linearGradient>
  <radialGradient id="radialGradient3772" xlink:href="#linearGradient6856" gradientUnits="userSpaceOnUse" cy="37.924" cx="23.953" gradientTransform="matrix(.13503 0 0 .045934 9.9765 20.355)" r="24.307"/>
  <radialGradient id="radialGradient2899" xlink:href="#linearGradient6856" gradientUnits="userSpaceOnUse" cy="37.924" cx="23.953" gradientTransform="matrix(.41141 0 0 .082272 3.1455 18.88)" r="24.307"/>
  <linearGradient id="linearGradient3745" y2="39.799" gradientUnits="userSpaceOnUse" x2="-11.968" gradientTransform="matrix(.73749 0 0 .52331 2.5341 -.67075)" y1="39.66" x1="-3.479">
   <stop id="stop4958" style="stop-color:#f8b17e" offset="0"/>
   <stop id="stop4960" style="stop-color:#e35d4f" offset=".26238"/>
   <stop id="stop4962" style="stop-color:#c6262e" offset=".66347"/>
   <stop id="stop4964" style="stop-color:#690b54" offset="1"/>
  </linearGradient>
  <linearGradient id="linearGradient3747" y2="33.259" gradientUnits="userSpaceOnUse" x2="-1.2524" gradientTransform="matrix(.73749 0 0 .52331 2.5341 -.67075)" y1="34.164" x1="-13.29">
   <stop id="stop2492" style="stop-color:#791235" offset="0"/>
   <stop id="stop2494" style="stop-color:#dd3b27" offset="1"/>
  </linearGradient>
  <linearGradient id="linearGradient3751" y2="27.537" xlink:href="#linearGradient6393" gradientUnits="userSpaceOnUse" x2="40.57" gradientTransform="matrix(.59386 0 0 .60092 -4.676 -2.9501)" y1="37.35" x1="40.57"/>
  <linearGradient id="linearGradient3754" y2="24.377" xlink:href="#linearGradient6393" gradientUnits="userSpaceOnUse" x2="33.807" gradientTransform="matrix(0.68 0 0 .49628 -5.81 .90614)" y1="34.234" x1="31.166"/>
  <linearGradient id="linearGradient3757" y2="13" xlink:href="#linearGradient6393" gradientUnits="userSpaceOnUse" x2="22.398" gradientTransform="matrix(.47553 0 0 .47095 -.53602 .11121)" y1="11.256" x1="8.569"/>
  <linearGradient id="linearGradient3760" y2="20.214" xlink:href="#linearGradient6393" gradientUnits="userSpaceOnUse" x2="33.601" gradientTransform="matrix(.41892 0 0 .58333 .36486 -1.625)" y1="15.036" x1="14.274"/>
  <linearGradient id="linearGradient3908" y2="16.263" gradientUnits="userSpaceOnUse" x2="-3.5356" gradientTransform="matrix(.70711 -.70710 .70711 .70710 0 0)" y1="16.263" x1=".70701">
   <stop id="stop3892" style="stop-color:#fff" offset="0"/>
   <stop id="stop3894" style="stop-color:#fff;stop-opacity:0" offset="1"/>
  </linearGradient>
 </defs>
 <path id="path6854" style="opacity:.14224;fill:url(#radialGradient2899)" d="m23 22a10 1.9998 0 1 1 -20 0 10 1.9998 0 1 1 20 0z"/>
 <path id="path6894" style="opacity:.28017;fill:url(#radialGradient3772)" d="m16.493 22.097a3.2821 1.1165 0 0 1 -6.5643 0 3.2821 1.1165 0 1 1 6.5643 0z"/>
 <path id="rect6318" style="stroke-dashoffset:.7;stroke:#878787;stroke-linecap:round;stroke-width:0.7;fill:url(#linearGradient3760)" d="m3.6937 6.25h10.138c3.4309 0 3.9185 1.1901 3.9185 1.1901s-0.55899 2.3099-7.2183 2.3099h-6.838c-0.8001 0-1.444-0.7805-1.444-1.75s0.6439-1.75 1.4437-1.75z"/>
 <path id="rect5331" style="stroke-dashoffset:.7;stroke:#878787;stroke-linecap:round;stroke-width:0.7;fill:url(#linearGradient3757)" d="m2.9404 6.2191c-0.79422 0.78657-0.78372 2.0544 0.010508 2.841 0.79422 0.78657 2.0639 0.78657 2.8581 0l1.965-1.946c0.9354-0.9263 1.5863-1.7304 2.0281-2.4456l0.5889-1.2072c0.38-1.1071 0.336-2.5919-0.091-3.0148-0.4375-0.43329-2.2256 0.6881-3.0198 1.4747l-4.3398 4.2979z"/>
 <path id="path6321" style="stroke-dashoffset:.7;stroke:#878787;stroke-linecap:round;stroke-width:0.7;fill:url(#linearGradient3754)" d="m17.65 20.291v-5.208c0-3.3636-1.3665-3.7332-1.3665-3.7332s-2.0335 1.0398-2.0335 4.951v3.9902c0 0.80815 0.7582 1.4588 1.7 1.4588s1.7-0.6506 1.7-1.4588z"/>
 <path id="rect6323" style="stroke-dashoffset:.7;stroke:#878787;stroke-linecap:round;stroke-width:0.7;fill:url(#linearGradient3751)" d="m12.84 19.739 2.8082 2.2573 6.322-6.3971c1.26-1.275 1.68-2.974 1.68-2.974l-1.26-1.275s-1.267 0.31473-2.3883 1.1951l-3.0805 3.0639-4.0814 4.1299z"/>
 <rect id="rect5329" style="stroke-dashoffset:.7;stroke:url(#linearGradient3747);stroke-linecap:round;fill:url(#linearGradient3745)" transform="matrix(.70711 -.70710 .70711 .70710 0 0)" rx="2.4984" ry="2.4984" height="20.741" width="6.2222" y="6.6003" x="-5.9393"/>
 <path id="rect6749" style="opacity:.8;fill:#fff" d="m6.25 9.5-0.75 0.75 0.75 0.75l-0.75 0.75 0.75 0.75 0.75-0.75 0.75 0.75 0.75-0.75-0.75-0.75 0.75-0.75-0.75-0.75-0.75 0.75-0.75-0.75z"/>
 <path id="path3898" style="opacity:.3;stroke-dashoffset:.7;stroke:url(#linearGradient3908);stroke-linecap:round;fill:none" d="m2.961 7.8223c-0.6629 0.6029-0.5341 1.7145 0.1596 2.2367 3.6988 3.692 7.3844 7.398 11.091 11.081 0.642 0.576 1.659 0.36 2.155-0.295 0.498-0.522 1.217-1.028 1.105-1.848-0.099-0.814-0.864-1.254-1.361-1.825-3.443-3.437-6.8731-6.887-10.325-10.315-0.642-0.5761-1.6586-0.3602-2.1547 0.2951-0.2234 0.2234-0.4468 0.4468-0.6703 0.6702z"/>
</svg>
